source/img/contacts-mail-brown.svg

<svg width="30" height="19" viewBox="0 0 35 27" fill="none" xmlns="http://www.w3.org/2000/svg">
<path fill-rule="evenodd" clip-rule="evenodd" d="M32.2786 20.9327L23.6178 13L32.2786 5.06731L31.0976 3.80529L18.5 15.3438L5.9024 3.80529L4.72137 5.06731L13.3822 13L4.72137 20.9327L5.9024 22.1947L14.6617 14.1719L18.5 17.6875L22.3383 14.1719L31.0976 22.1947L32.2786 20.9327ZM3.15193 0.5C1.5339 0.5 0.222229 1.89768 0.222229 3.61572V22.3843C0.222229 24.105 1.52326 25.5 3.15193 25.5H33.8481C35.4661 25.5 36.7778 24.1023 36.7778 22.3843V3.61572C36.7778 1.89496 35.4768 0.5 33.8481 0.5H3.15193Z" fill="#bc6d4f"/>
</svg>

<svg width="30" height="19" viewBox="0 0 35 27" fill="none" xmlns="http://www.w3.org/2000/svg"><path fill-rule="evenodd" clip-rule="evenodd" d="M32.279 20.933L23.618 13l8.66-7.933-1.18-1.262L18.5 15.344 5.902 3.805l-1.18 1.262L13.381 13l-8.66 7.933 1.18 1.262 8.76-8.023 3.838 3.515 3.838-3.515 8.76 8.023 1.18-1.262zM3.152.5C1.534.5.222 1.898.222 3.616v18.768c0 1.721 1.301 3.116 2.93 3.116h30.696c1.618 0 2.93-1.398 2.93-3.116V3.616c0-1.721-1.301-3.116-2.93-3.116H3.152z" fill="#bc6d4f"/></svg>
